X:1
T:When bidden to the wake or fair
T:When bidden to the wake or fair
T:William Shield (1748-1829)
C:William Shield (1748-1829)
L:1/8
M:4/4
K:G
V:1 treble 
V:1
 G>A | B2 E2 B3 A | G2 (F>E) E2 (D>E) | G3 A BABd | e2 A2 A2 (G>A) | B2 d2 (cB)(AG) | %6
 AB !fermata!g3 f | e3 d BAB^d | e2 (E>F) E2 (B>c) | d3 e (fe)(cB) | g2 d2 d2 (gf) | e3 f gfga | %12
 b2 (e>f) e2 d>c | B2 g2 dBAG | A2 B2 !fermata!g3 f | (eg)(fe) BAB^d | e2 E>F E2 || %17

